X:1
T:A Song of Hope
T:Charles Villiers Stanford (1852-1924) Opus 113, No. 3
T:Psalm 130
T:A Song of Hope
C:Charles Villiers Stanford (1852-1924)
C:Opus 113, No. 3
Z:Psalm 130
%%score 1 { ( 2 4 ) | ( 3 5 ) } 6
L:1/8
Q:1/4=80
M:3/4
K:F
V:1 treble nm="Voice" snm="Voice"
V:2 treble nm="Organ" snm="Org."
V:4 treble 
V:3 bass 
V:5 bass 
V:6 bass nm="Pedals" snm="Ped."
V:1
"^Andante moderato" z2!f!!<(! D2 F!<)!A | d6- | d2 F2 G2 |!>(! A4!>)! !fermata!E2 | z2!mf! C2 _EG | %5
w: Out of the|deep|_ have I|call- ed,|Out of the|
 c6- | c2 _E2 F2 | G4 !fermata!D2 | z6 |!p! B,2 F2 _E2 | (B4 A2) | z2 A2 =B2 | A4 ^G2 | %13
w: deep|_ have I|call- ed,||Out of the|deep _|have I|call- ed|
 z2 ^G2 ^A2 | ^G4 =G2 | z2 ^F2"^cresc." G2 | B6 | z2 ^F2 G2 |!<(! c6!<)! | ^c6 |!f! d6 | z6 | B6 | %23
w: have I|call- ed|un- to|thee,|un- to|thee,|O|Lord.||Lord,|
 (B2 A2) G2 | A6 | z6 | B6 | B2 A2 G2 | d6- | d4 z2 | z6 | z6 |!mf! c6 | c4 c2 | c4 B2 | %35
w: hear _ my|voice,||Lord,|hear _ my|voice.|_|||O,|let thine|ears con-|
 B2 _A2 G2 | ^F4- FF | G4 B,2 | D6- | D4 C2 | =B,4 z2 | z2!<(! D2 _E2!<)! | F4 G2 | c4 _E2 | %44
w: si- * der|well _ the|voice of|my|_ com-|plaint.|Let thine|ears con-|si- der|
 D4- DD | d4 G2 | (F6- | F2 E2) G2 | (!>!^C4 D2) | z2 z2 F2 |!<(! (F2 E2) G2!<)! | B4 ^C2 | %52
w: well _ the|voice of|my|_ _ com-|plaint, _|the|voice _ of|my com-|
!>(! (!>!^C2 D2)!>)! z2 | z6 | z6 | z6 | z6 | z6 | z6 | z6 | z6 | z6 | z6 | z2 z2!f! G2 | %64
w: plaint. _|||||||||||If|
[M:6/8] B3 B3- | B z B _A2 G | B2- B/_A/ AGF | _A2- A/F/ C3 | z2 ^G =B3 | =B2 z/ B/ A2 ^G | %70
w: thou, Lord,|_ wilt be ex-|treme _ to mark what is|done _ a- miss:|if thou,|Lord, wilt be ex-|
 =B2- B/A/ A^G^F | A2- A/^F/ ^C3 | z z D A3 | ^FG>A"^accel." c2 B | z z _E B3 | G_A>B _d2 _c | %76
w: treme _ to mark what is|done _ a- miss,|O Lord,|who may a- bide it?|O Lord,|who may a- bide it?|
 z z =E =B3- | B2 z c3- | c_B>_E G3- | G3- G2 !fermata!^C |"^poco a poco slentando" z z G G2 G | %81
w: O Lord,|_ who|_ may a- bide|_ _ it?|For there is|
 G3 ^F z z | z2 z!<(! ^F3-!<)! | F3!>(! =F2!>)! _E | _D3 z2 z | z z =D- D=B,D ||[K:D] F3- F2 B | %87
w: mer- cy,|mer-|* cy with|thee,|There- * fore shalt|thou _ be|
!<(! B6-!<)! |!pp!!>(! B6-!>)! | B3 B, z z |[M:2/2]"^con moto"[Q:1/4=120] z4 z2!mf! D2 | %91
w: fear-||* ed,|I|
 A2 GA B4- | B2 d2 c2 B2 | D2 (EF) G4 | z2 (E2 F2) G2 | A6 F2 | B4 A2 B2 | E8 | z2 E2 (E2 F2) | %99
w: look for the Lord;|_ my soul doth|wait for _ him;|in _ his|word, his|word is my|trust.|My soul _|
 AGFG A4- | A2 G4 F2 | B2 E2 G2 AB | =c2"^cresc." A2 z2 AB | =c2 F2 A2 Bc | d8- | d4 E4 | %106
w: look- eth for the Lord|_ more than|watch- men look for the|morn- ing, more than|watch- men look for the|morn-|* ning,|
 z4!p! F2 E2 | A6 F2 | B4 A2 B2 | D8 | z4 z2!mf! D2 | G2 E2 A2 FD | B4 z4 | z4 z2 D2 | %114
w: in his|word, his|word is my|trust.|Let|Is- rael hope in the|Lord;|Let|
"^cresc." A2 =c2 B2 AF |!f! d8 | z8 | z2 G2 _B3 B | _B4 A2 G2 | A4 E2 z2 | z8 | z2 A2 =c3 c | %122
w: Is- rael hope in the|Lord;||for with the|Lord there is|mer- cy||for with the|
 =c4 B2 A2 | B4 F2 z2 | z4 ^E2 F2 | B4 B4 | d4 c2 B2 | d4 A2 z2 | z4 z2 G2 | G2 FE (B2 A2) | %130
w: Lord there is|mer- cy,|and with|him is|plen- teous re-|demp- tion;|and|he shall re- deem _|
 A3 F A4 | z4 z2 A2 | (A4 D2) =c2 | B6 z2 | z2!f! D2 D3 D | d4 =c2 _B2 | D4 =F2 z2 | z8 | %138
w: Is- ra- el|from|all _ his|sins,|for with the|Lord there is|mer- cy||
 z2 ^F2 F2 E2 | A6 ^A2 | B8 | A4 B4 |[M:9/8] D6 z2 z | z9 | z9 |"^rit." z2 z (E3 B3- | %146
w: and in his|word, his|word|is my|trust.|||Lord _|
 B2) z B3- B2 A | A6- A3- | A3 z2 z z2 z | z9 | z9 |] %151
w: _ hear _ my|voice. _|_|||
V:2
!mf! ([DF]6- | F4 G2 | A6- | A6) | ([=C_E]6- | E4 F2 | G6 | G6) |!p! z2 _B,2 _D>F | B2 _D2 _E2 | %10
 F6 | (A4 D2 | E6) | (^G4 ^C2 | ^D6) | ([^F,^F]4 [=G,=G]2) |"^cresc." (^C4 D2) | %17
 ([^F,^F]4 [G,G]2) | [_E_e]6 |!mf! ([GB]2 [F=A]2 [=EG]2 | F2 [EG]2 [FA]2 | _e6- | e2) (d2 B2 | %23
 [=EG]2 [^FA]2 [GB]2 | [D^F]2 [EG]2 [FA]2 | ^f6- |!<(! f2) (g2 d2 | [B^c]2 [Ad]2!<)! [Be]2) | %28
!f! [Aa]2 [Bb]2 [=c^f]2 | [dg]2 [^Fd]2 [G_e]2 | [_EA]2 [DB]2!>(! [C^F]2 | %31
 [B,G]2 [A,D]2!>)! [B,_E]2 |!p! z2 C4 | z2 C4 | z2 (C2 B,2) | z2 (_A,2 [G,_E]2) | %36
 z2 ([B,D]2 [=A,C]2) | z2 (B,2- [B,-C]2) | (D2 F2 B2 | [B,D]4) A,2 | !>!_A6 | !>!_A4 !>!A2 | %42
 (!>!_A4 G2) | ([_EG]2 [DF]2 [C-E]2 | [CD]6) | ([DB]2 [CA]2 [B,G]2 | [DF]6- | F2 E2 G2- | G4 F2) | %49
 (B2 A2 d2) | (F2 E2 G2) | ^C6- | C2 (D2 A2 |!f! d6- | d2 F2 G2 | A6) |!mf! z2 ^C2 ^G2 | ^c6- | %58
 c2 E2 ^F2 | ^G6 |!p! z2 (_E2 =F2 |!<(! [CG]6-) | ([CG-]6!<)! | [=B,G]6) |[M:6/8] (F3!>(! E3)!>)! | %65
!p! F3 E3 | F6 | F6 | (^F3 ^E3) | (^F3 ^E3) | ^F6 | ^F6 | (d2 E ^FGA | %73
"^cresc. ed accel." [^F_e][Gd][Ac-] [Gc][_EA][DB]) | (_e2 =F G_AB | %75
 [G_f][_A_e][B_d-] [Ad][_FB][_E_c]) | ([=E=e]^G=B d=fe | [F-Bd][F^G=B][EAc]) =gef | %78
!f! ([c_e-_a][_Beg]!>(![GBe] [GB]3)!>)! | G6 |"^dim." (=cB_E- G3- | G3 ^F) z z | (=BAD- ^F3- | %83
 F3 =F) z z |!p! (_B_A_D- F3- | F6) ||[K:D] ([B,-D-F]6 | G3- G2 B | A3- ^G3- | [B,DG]) z z z2 z | %90
[M:2/2]!p! z2 (E2 F2 ^G2 | [FA]2 =GF [B,DE]4-) | [B,DE]4 (c2 B2 | [A,D]4) ([B,DG]4- | %94
 [B,DG]4 F2 E2) | (A2 G4 F2) | ([B,CE]4 [A,D-F]2 [B,DG]2 |!<(! [CE-]4)!<)! [=CE=c]4- | %98
!>(! c2 A2!>)! E2 ^D2 | (E2 (FG) A4- | A2) G4 F2 | ([B,EB]4 [=CEG]4-) | [CEG=c]8 | %103
 [=CF=c]4 [DFA]4 | [Dd]8- | [DEd]8 | z4 (F2 E2 | A2 F4 E2 | D2 E2 [A,F]2 [G,E]2 | %109
 [F,D]2) ([F,D]2 [G,E]2 [A,F]2 | G2!<(! FE A2 F2 | B2 AG =c2!<)! A2 | %112
 [Gd]2)!p! ([B,G]2 [=CA]2 [DB]2 | =c2!<(! BA d2 B2 | e2 d=c!<)! f2 d2) |!f! (G4 _B2 d2 | %116
 g4 ^c2 d2 | ^d4 e4) |!>(! (_B4 A4)!>)! |!<(! (A4 =c2 e2!<)! | a4 ^d2 e2 | ^e4 f4) | %122
!>(! (=c4 B4)!>)! | (B4 =d2 f2 | b4 ^e2 f2 | g4 ^g4- | g2 f2 [ce]2 [Bd]2 | [DA]2) (F2 =G2 A2 | %128
 B2 AG B4 | B2 AG [B,D]2 [CE]2 | A2) (F2 G2 A2 | =c2 BA c4- | c2 BA [EG]2 [FA]2 | %133
!f! [GB]2) (G2 A2 B2 | [_Bd]2 [A=c][GB] [Bd]4-) | [Bd]2 ([G_B]2 [D-A]2 [DG]2 | [_B,D]4 [A,=C]4 | %137
 [_B,=F]4 [DG]4 | A6) (E2 | A2"^dim." F2 D2 C2 | B,4 [B,D]4 | E6) z2 |[M:9/8]!p! (DFA dFG A3) | %143
 (=CEG =cE=F G3) | (_B,D=F _BDE ^F3-) | [A,F]3 ([=B,E]3 [G,D-]3 | D3 C6) | %147
 ([A,D][B,E][G,B,] [F,A,][A,D][B,E] [G,B,][F,A,][A,D] | [B,E][G,B,][F,A,]) ([B,-D]3 [B,E]3) | %149
!pp! z2 z B,6 | A,6- !fermata!A,3 |] %151
V:3
 [D,F,A,]6- | [F,A,]4 [E,G,]2 | [D,F,]6 | E,6 | [C,_E,G,]6- | [E,G,]4 [D,F,]2 | [C,_E,]6 | D,6 | %8
 [_B,,_D,F,]6- | [D,F,]4 [C,_E,]2 | _D,4 C,2 | [C,E,]4 [=B,,D,]2 | C,4 =B,,2 | %13
 [=B,,^D,]4 [^A,,^C,]2 | =B,,4 ^A,,2 | _B,,6- | B,,6- | B,,6- | B,,4 _A,,2 | %19
 [^C,=E,]2 [F,=A,]2 [G,B,]2 | [F,A,]2 [E,G,]2 [D,F,]2 | [A,C]2 [G,B,]2 [^F,A,]2 | [G,B,]4 [B,-D]2 | %23
 ^C6 | A,2 G,2 ^F,2 | [C_E]2 [B,D]2 [A,C]2 | [G,B,]4 [B,-D]2 | [B,G]2 [A,^F]2 [G,^C]2 | [D,D]6- | %29
 [D,D]2 C2 B,2 | C2 B,2 A,2 | G,2 ^F,2 G,2 | z2 ^F,2 G,2 | z2 A,2 G,2 | z2 [_E,^F,]2 [D,G,]2 | %35
 z2 [C,_E,]4 | z2 [D,^F,]4 | z2 [_E,G,]4 | F,2 D,2 F,2 | D,6 | z2 F,2 _E,2 | z2 D,2 _E,2 | %42
 z2 F,2 G,2 | _A,6- | A,2 =A,2 D,2 | G,4 D,2 | B,2 A,2 ^G,2 | A,2 =G,2 E,2- | E,4 D,2 | %49
 ^G,2 A,2 D,2 | B,6 | [E,G,]6 | [D,F,A,]6 | [F,A,]4 [E,G,]2 | [D,F,]6 | E,6 | z2 [^C,E,^G,]4- | %57
 [E,G,]4 [^D,^F,]2 | [C,E,]6 | ^D,6 | z2 =C,2 =D,2 | _E,6 | D,6- | D,6 |[M:6/8] [G,_B,]6 | %65
 [G,B,]6 | B,3 _A,3- | [F,A,]6 | [^G,=B,]6 | [^G,=B,]6 | =B,3 A,3- | [F,A,]6 | D,6 | A,B,C _ECB, | %74
 _E,6 | B,_C_D _FDC | =E,^G,=B, [F,B,D]3- | [F,-B,D][F,^G,=B,][E,A,C] [=G,C-E]2 [_A,CF] | %78
 [C_E-_A][_B,EG][G,B,E] FEG, | CB,_E, =E,3 | z2 z G,3- | G,3 ^F, z z | ^F,6- | F,3 =F, z z | %84
 =F,6- | F,6 ||[K:D] B,,3 D,2 F, | B,3 B,,2 C, | D,6- | D, z z z2 z |[M:2/2] z2 ^G,2 F,2 E,2 | %91
 A,2 B,A, z G,,B,,E, | G,B,DB, G,E,C,E, | F,4 z E,,G,,B,, | E,G,B,G, F,C,A,,C, | %95
 z A,,C,E, G,E,D,F, | z B,,C,E, F,D,B,,G,, | z E,,A,,C, E,A,,=C,E, | A,4 A,,4 | E,4 z A,,=C,E, | %100
 A,=CEC A,E,=C,E, | z B,,E,G, z =C,E,G, | z A,,=C,E, A,=CEE, | z =C,F,A, z D,F,A, | %104
 z D,G,B, DA,F,D, | C,B,,^G,,B,, E,^G,B,G, | D2 z2 z4 | z A,,D,F, A,F,D,F, | z G,E,D, C,A,,C,A,- | %109
 A,2 D,2 B,,2 A,,2 | G,,2 B,,2 F,2 A,2 | G,2 B,2 A,2 =C2 | B,2 G,2 E,2 D,2 | =C,2 E,2 B,2 D2 | %114
 =C2 E2 D2 C2 | [G,_B,D]8- | D4 ^C2 D2 | [G,B,]8 | [E,G,]8 | [A,-=C-E]8 | E4 ^D2 E2 | ^E4 F4 | %122
 [F,A,]8 | [B,DF]8- | F4 ^E2 F2 | G4 ^G4- | G2 F2 [CE]2 [B,D]2 | F,2 D,2 E,2 F,2 | %128
 G,2 F,E, G,E,B,,G,, | B,,E,G,B, G,4 | F,2 D,2 E,2 F,2 | A,2 G,F, A,E,=C,B,, | A,,D,F,A, D2 =C2 | %133
 B,2 B,2 A,2 G,2- | [G,_B,]2 [A,=C][B,D] [G,B,]4- | [G,B,]2 D2 =C2 _B,2 | =F,8- | F,4 =E,4 | %138
 ^F,4 C,4- | C,2 D,2 F,2 E,2 | D,4 ^G,4 | =G,6 z2 |[M:9/8] F,3- F,D,E, F,D,E, | %143
 E,3- E,=C,D, E,C,D, | D,3- D,_B,,=C, D,3- | D,6 =B,,3 | A,,3 E,6 | F,G,C, D,F,G, C,D,F, | %148
 G,C,D, F,3 G,3 | z2 z [C,E,]6 | [D,F,]6- !fermata![D,F,]3 |] %151
V:4
 x6 | D6- | D6- | D4 !fermata!^C2 | x6 | C6- | C6- | C4 !fermata!=B,2 | x2 B,4- | B,6- | B,4 A,2 | %11
 A,6- | A,4 ^G,2- | G,6- | G,4 ^^F,2 | ^C6 | [G,G]6 | _E6 | (G4 _A2) | ^C6 | D6 | ^F2 G2 A2 | %22
 B4 G2 | x6 | x6 | A2 B2 c2 | d4 B2- | x6 | x6 | x6 | x6 | x6 | x6 | x6 | x6 | x6 | x6 | x6 | %38
 B,4 D2 | x6 | z2 ([=B,D]2 [C_E]2) | z2 ([DF]2 [C_E]2) | z2 (=B,2 C2) | x6 | x6 | x6 | x6 | %47
 D4 ^C2- | C4 D2 | D6- | D6 | x6 | x2 D4- | D6- | D6- | D4 ^C2 | x2 ^C4- | C6- | C6- | C4 ^B,2 | %60
 x2 =C4- | x6 | x6 | x6 |[M:6/8] _D3- DCD | _D3- DCD | [_D_d]3- [Dd][=B,=B][Cc] | %67
 (([_D_d]3- [Dd][=B,=B][Cc])) | =D3- D^B,^C | =D3- D^B,^C | [Dd]3- [Dd][^B,^B][^C^c] | %71
 [Dd]3- [Dd][^B,^B][^C^c] | D6 | x6 | _E6 | x6 | x3 [F=B]3- | x3 [=Gc-]2 [_Ac] | x6 | %79
 _E3 D2 !fermata!^C | x3 E2 D | ^C3- C x x | x3 D2 ^C | =C3- C x x | x3 D2 C- | C2 =B,- B,3 || %86
[K:D] x6 | [B,D]6- | [B,D]6- | x6 |[M:2/2] x2 [B,D]6 | D4 x4 | x4 [CE]4 | x8 | x4 [A,C]4 | %95
 [CE]6 D2 | x8 | x8 | [C-E]4 C4 | [B,E]4 [=CE]4- | [CE]8 | x8 | x8 | x8 | G4 F4 | x8 | x4 [A,-C]4 | %107
 [A,D]6 [A,C]2 | [B,D]4 C4 | x8 | B,2 G,2 x2 C2 | B,2 D2 E2 F2 | x8 | E2 =C2 x2 F2 | E2 G2 A2 F2 | %115
 G8- | G4 [G_B]4- | [GB]8 | [^CG]8 | A8- | A4 [A=c]4- | [Ac]8 | [^DA]8 | B8- | B4 [Bd]4- | [Bd]8- | %126
 [Bd]4 ^G4 | x2 D6- | D4- [DE]4- | [DE]4 x4 | D8 | [=C-E]8 | [CD]4 x4 | x2 D6 | x8 | x8 | x8 | x8 | %138
 D4 A,4- | A,6 ^A,2 | x8 | D4 C2 x2 |[M:9/8] D6- DB,C | =C6- CA,B, | (_B,6 ^A,3-) | x9 | G,6- G,3 | %147
 x9 | x9 | x9 | x9 |] %151
V:5
 x6 | D,6 | x6 | x6 | x6 | C,6- | x6 | x6 | x6 | B,,6 | x6 | A,,6 | x6 | ^G,,6 | x6 | x6 | x6 | %17
 x6 | x6 | x6 | x6 | x6 | x6 | B,2 A,2 G,2 | x6 | x6 | x6 | x6 | x6 | x6 | x6 | x6 | x2 _E,4 | %33
 x2 _E,4 | x6 | x6 | x6 | x6 | x6 | x6 | x6 | x6 | x6 | x6 | x6 | x6 | x6 | x6 | x6 | x6 | %50
 =G,4 E,2 | x6 | x6 | D,6- | x6 | x6 | x6 | C,6- | x6 | x6 | x6 | x6 | x6 | x6 |[M:6/8] x6 | x6 | %66
 [C,F,-]6 | =B,,3 C,3 | x6 | x6 | [^C,^F,-]6 | ^B,,3 ^C,3 | x6 | x6 | x6 | x6 | x6 | x6 | x6 | x6 | %80
 x3 _E,2 D, | ^C,3- C, x x | D,3- D,2 ^C, | =C,3- C, x x | _D,3- D,2 C,- | C,2 =B,,- B,,3 || %86
[K:D] x6 | x6 | x6 | x6 |[M:2/2] x8 | x8 | x8 | x8 | x8 | x8 | x8 | x8 | x8 | x8 | x8 | x8 | x8 | %103
 x8 | x8 | x8 | x8 | x8 | x8 | x8 | x4 D,2 x2 | x8 | x8 | x4 G,2 x2 | x8 | x8 | [G,B,]8- | ^D4 E4 | %118
 x8 | x8 | [A,C]8- | [A,C]8 | x8 | x8 | [B,D]8- | [B,D]8- | [B,D]4 ^G,4 | x8 | x8 | x8 | x8 | x8 | %132
 x8 | x2 B,6 | x8 | x8 | x8 | x8 | x8 | x8 | x8 | x8 |[M:9/8] D,2 C, B,,3 A,,3 | %143
 =C,2 B,, A,,3 G,,3 | x9 | x9 | x9 | x9 | x9 | x9 | x9 |] %151
V:6
 (D,4 C,2 | B,,6 | A,,6- | A,,6) | (C,4 B,,2 | _A,,6 | G,,6- | G,,6) | (B,,4 _A,,2 | _G,,6 | %10
 F,,6- | F,,6) | E,,6- | E,,6 | (^D,,6 | _E,,6) | D,,6 | _D,,6 | C,,6 | =A,,6 | D,,6- | D,,6- | %22
 D,,2 (B,,2 G,,2 | E,6) | D,,6- | D,,6- | D,,2 (D,2 G,,2 | G,6) | (^F,2 G,2 A,2 | B,2 A,2 G,2 | %30
 ^F,2 G,2 _E,2 | D,2 C,2 B,,2) | (A,,4 G,,2 | ^F,,4 G,,2 | A,,4 B,,2 | C,6) | D,6 | _E,6 | %38
 (F,4 F,,2 | ^F,,6) | (G,,6 | =B,,4 C,2 | D,4 _E,2 | F,6) | (^F,6 | G,4) (G,,2 | ^G,,2 A,,2 B,,2 | %47
 A,,6 | B,,6) | (F,,6 | G,,6 | A,,6 | D,,2) D,2 C,2 | B,,6 | A,,6- | A,,6 | z2 (^C,2 =B,,2 | A,,6 | %58
 ^G,,6- | G,,6) | z2 _A,,4 | G,,6- | G,,6- | G,,6 |[M:6/8] z (^F,,G,, C,,3) | z (^F,,G,, C,,3) | %66
 z (=F,,_A,, C,,3) | z (F,,_A,, C,,3) | z (^^F,,^G,, ^C,,3) | z (^^F,,^G,, ^C,,3) | %70
 z (^F,,A,, ^C,,3) | z (^F,,A,, ^C,,3) | z (^F,,G,, A,,B,,=C,- | C,B,,A,, G,,^F,,G,,) | %74
 z (G,,_A,, B,,_C,_D,- | D,_C,B,, _A,,G,,A,,) | ^G,,3- G,,=G,,^G,, | A,,3 _A,,3 | G,,6- | %79
 G,,3 A,,3 | z2 z B,,3- | B,,3- B,, z z | A,,6- | A,,3- A,, z z | _A,,6 | G,,6 ||[K:D] F,,6 | %87
 =F,,6 | E,,6- | E,, z z z2 z |[M:2/2] z8 | z4!p! G,4- | G,4 G,,2 z2 | z4 E,4- | E,4 G,,2 z2 | %95
 F,,2 z2 B,,2 z2 | G,,2 z2 F,,2 G,,2 | A,,8- | A,,2 z2 z4 | z4 A,4- | A,4 A,,2 z2 | %101
 G,,2 z2 =C,2 z2 | A,,6 z2 | A,,2 z2 =C,2 z2 | (B,,4 A,,4 | ^G,,8) | z4 (=G,,4 | %107
 F,,2) z2 z2 .F,,2 | .G,,2 z2 .A,,2 z2 | D,,8- | D,,8- | D,,8- | D,,8- | D,,8- | D,,8 | (E,,8 | %116
 E,6 D,2 | ^C,8) | A,,8 | F,,8- | F,6 E,2 | ^D,8 | B,,8 | (^G,,8 | ^G,6 F,2 | ^E,8 | =E,4 =E,,4) | %127
 A,,8- | A,,8- | A,,8- | A,,8 | G,,8 | F,,4 D,4 | G,,8 | E,,8- | E,,8 | (=F,,4 _E,4 | %137
 D,2 =C,2 _B,,4 | A,,4) (G,,4 | F,,8 | G,,4 E,,4 | A,,6) z2 |[M:9/8] z9 | z9 | %144
 _B,,2 A,, G,,3 ^F,,3- | F,,3 G,,3 E,,3 | A,,6- A,,3 | D,,6- D,,3- | D,,3 (B,,3 E,,3) | z2 z G,,6 | %150
 D,,6- !fermata!D,,3 |] %151

